X: 193
T: Mijn hert altijt heeft verlanghen
N: Derived from Rue3015-Mijn_hert_altijt_heeft_verlanghen.krn
C: Pierre de la Rue
%%abc-version 2.0
%%abcx-abcm2ps-target-version 5.9.1 (29 Sep 2008)
%%abc-creator hum2abc beta
%%abcx-conversion-date 2019/02/17 08:01:17
%%abc-edited-by Jesse Rodin
%%abc-edited-by Chris Gage 06-17-2013
%%abcx-initial-encoding-date 2013/08/06/
%%humdrum-veritas 2306662298
%%humdrum-veritas-data 3206171720
%%linebreak <none>
%%barnumbers 0
L: 1/4
M: 2/1
Q: 1/2=120
%%staves [1 2 3 4]
V: 1 clef=treble
V: 2 clef=treble
V: 3 clef=treble-8
V: 4 clef=bass
K: C
[V:1] z8 | 
[V:2] G4G2G2 | 
[V:3] z8 | 
[V:4] z8 | 
[V:1] z8 | 
[V:2] D2F2G2_B2- | 
[V:3] z8 | 
[V:4] z4G,4 | 
[V:1] z8 | 
[V:2] B2AGA4 | 
[V:3] z8 | 
[V:4] G,2G,2D,2F,2 | 
[V:1] z8 | 
[V:2] D4z4 | 
[V:3] d4d2d2 | 
[V:4] G,2_B,4A,G, | 
[V:1] z4d4 | 
[V:2] A4_B2A2- | 
[V:3] A2c2d2f2- | 
[V:4] A,4D,4 | 
[V:1] d2d2c4 | 
[V:2] A2GFG2A2 | 
[V:3] f2ede2A2 | 
[V:4] z4z2A,2 | 
[V:1] d2f4ed | 
[V:2] D4A4 | 
[V:3] z8 | 
[V:4] B,2D4CB, | 
[V:1] e4A4 | 
[V:2] z4z2A2- | 
[V:3] e4f4 | 
[V:4] C4D4 | 
[V:1] z4e4- | 
[V:2] A2A2G3A | 
[V:3] f4e2g2- | 
[V:4] D,4z4 | 
[V:1] e4f4 | 
[V:2] =B2c4=B2 | 
[V:3] g2fed4 | 
[V:4] z8 | 
[V:1] e2g6 | 
[V:2] c3_BGAB2- | 
[V:3] c4z4 | 
[V:4] z8 | 
[V:1] e2c2d4 | 
[V:2] B2A4G2 | 
[V:3] z4d4 | 
[V:4] A,4_B,4 | 
[V:1] c4c2d2- | 
[V:2] A6G2- | 
[V:3] e4e2d2- | 
[V:4] A,2C4_B,2 | 
[V:1] dc_BAB4 | 
[V:2] G2F4E2 | 
[V:3] d2c4_B2 | 
[V:4] A,2G,F,G,4 | 
[V:1] A4z2f2 | 
[V:2] F2A2G2F2 | 
[V:3] c2f2e2d2 | 
[V:4] F,4z4 | 
[V:1] e2d2c2_B2 | 
[V:2] G2D2F2G2 | 
[V:3] c2f3de2 | 
[V:4] z2_B,2A,2G,2 | 
[V:1] A4A2_B2- | 
[V:2] C4D4 | 
[V:3] f4f2g2- | 
[V:4] F,3E,D,2G,2- | 
[V:1] BAd4^c2 | 
[V:2] z2A4A2- | 
[V:3] g2f2e4 | 
[V:4] G,F,D,2A,4 | 
[V:1] d8 | 
[V:2] AGF4ED | 
[V:3] d8 | 
[V:4] D,4z4 | 
[V:1] z8 | 
[V:2] C8 | 
[V:3] e4e2e2- | 
[V:4] A,4A,2A,2 | 
[V:1] z8 | 
[V:2] z8 | 
[V:3] e2f2f4 | 
[V:4] G,2F,3G,A,B, | 
[V:1] z8 | 
[V:2] z2A4G2 | 
[V:3] e2e2d4 | 
[V:4] C2A,2_B,4 | 
[V:1] e4e2e2 | 
[V:2] A2E2c4 | 
[V:3] c8 | 
[V:4] A,4A,3B, | 
[V:1] e2f4f2 | 
[V:2] c_BAGF2B2- | 
[V:3] z8 | 
[V:4] C2D4D2 | 
[V:1] e4d4 | 
[V:2] B2A4G2 | 
[V:3] z8 | 
[V:4] C2A,2_B,4 | 
[V:1] c8 | 
[V:2] A8- | 
[V:3] e4e2e2 | 
[V:4] A,8- | 
[V:1] z2e2e2e2 | 
[V:2] A8 | 
[V:3] f2e4dc | 
[V:4] A,8 | 
[V:1] f2e4dc | 
[V:2] z8 | 
[V:3] d2c2g4 | 
[V:4] z8 | 
[V:1] d2c2g4 | 
[V:2] z4G4 | 
[V:3] f4e2g2- | 
[V:4] z4C4 | 
[V:1] g6f2- | 
[V:2] c2c4_BA | 
[V:3] gfe4d2 | 
[V:4] C2C4D2- | 
[V:1] f2e4d2 | 
[V:2] A8 | 
[V:3] e4f4 | 
[V:4] D2C2D4 | 
[V:1] e8 | 
[V:2] z2A2G2A2 | 
[V:3] e8- | 
[V:4] A,4z2A,2 | 
[V:1] z8 | 
[V:2] E2A2GFED | 
[V:3] e8 | 
[V:4] G,2A,2E,2A,2- | 
[V:1] z4e4 | 
[V:2] C2D4^C2 | 
[V:3] z8 | 
[V:4] A,2G,F,E,4 | 
[V:1] f2f4e2 | 
[V:2] D4d3c | 
[V:3] z8 | 
[V:4] D,8 | 
[V:1] d2c2B4 | 
[V:2] _BAA4^G2 | 
[V:3] z4e4 | 
[V:4] z8 | 
[V:1] A8 | 
[V:2] A4z4 | 
[V:3] f2f4f2 | 
[V:4] z2D,2F,2F,2 | 
[V:1] z8 | 
[V:2] z8 | 
[V:3] d4d2d2 | 
[V:4] G,2_B,4A,G, | 
[V:1] z4d4 | 
[V:2] A8- | 
[V:3] A2c2d2f2- | 
[V:4] A,4D,4 | 
[V:1] d2d2c4 | 
[V:2] A4G3F | 
[V:3] f2ede4 | 
[V:4] z8 | 
[V:1] c4d2f2- | 
[V:2] A4G2F2 | 
[V:3] A4z4 | 
[V:4] A,4B,2D2- | 
[V:1] f2ede4 | 
[V:2] A8 | 
[V:3] z4e4 | 
[V:4] D2CB,C2C2 | 
[V:1] A4z4 | 
[V:2] A4G3A | 
[V:3] f4e2g2- | 
[V:4] D4z4 | 
[V:1] e4f4 | 
[V:2] =B2c4=B2 | 
[V:3] g2fed4 | 
[V:4] z8 | 
[V:1] e2g4f2 | 
[V:2] c3_BGAB2- | 
[V:3] c4z4 | 
[V:4] z2E4D2 | 
[V:1] e2dcd4 | 
[V:2] B2A2A3G | 
[V:3] z4d4 | 
[V:4] C2A,2_B,4 | 
[V:1] c4c2d2- | 
[V:2] A6G2- | 
[V:3] e4e2d2- | 
[V:4] A,2C4_B,2 | 
[V:1] dc_BAB4 | 
[V:2] G2F4E2 | 
[V:3] d2c4_B2 | 
[V:4] A,2F,2G,4 | 
[V:1] A4z2f2 | 
[V:2] F2A2G2F2 | 
[V:3] c2f2e2d2 | 
[V:4] F,4z4 | 
[V:1] e2d2c2_B2 | 
[V:2] G2D2F2G2 | 
[V:3] c2f3e/d/e2 | 
[V:4] z2_B,2A,2G,2 | 
[V:1] A4A2_B2- | 
[V:2] C4D4- | 
[V:3] f2a4g2- | 
[V:4] F,3E,D,2G,2- | 
[V:1] BAd4^c2 | 
[V:2] D2A3GFE | 
[V:3] gfede4 | 
[V:4] G,F,D,2A,4 | 
[V:1] d8- | 
[V:2] F6ED | 
[V:3] d8- | 
[V:4] D,8- | 
[V:1] d8 |]  
[V:2] A8 |]  
[V:3] d8 |]  
[V:4] D,8 |]  



